X: 41866
T: Visitors, The
R: jig
M: 6/8
K: Dmajor
|:A|def edc|dcd FGA|=cde dcA|GED C2E|
DFA GBd|Ace gfe|fed cBA|GEA D2:|
|:e|fdc dfa|baf afd|~g3 Bed|cBc Aag|
fce dAB|=cE=F G^ce|~d3 BAF|GEA D2:|

